X: 298
T: A Night On The Gin
R: jig
M: 6/8
K: Dmajor
"D"a2d dcd|"D"c2dA2d|"D"c2dA2B|"C"=c3c3|
"D"A2d dcd|"D"c2dA2B|"C"=c2AG2E|"D"F2DD3:|
"D"F2AA2=c|"G"B2GG2B|"F"A2=FF2G|"A7"A2EE2A|
"D"F2AA2=c|"G"B2GG2B|"F"AG=F"A7"G2E|"D"D3D3:|
"D"F2AA2F|"G"G2B "A"ABc|"D"d2AA2F|"Em"A2G"A7"E2A|
"D"F2AA2F|"G"G2B "A7"ABc|"D"d2zA2z|"A"E3"D"D3:|

